X:1
T: Miss McLeod of Rosses
C:
R:Reel
Q: 232
K:D
M:4/4
L:1/8
|:A,2|D2 ((3FED) AG FE|Dd dc de fd|D2 ((3FED) AD FA|((3Bcd) AF FE EF|
D2 ((3FED) AG FE|Dd dc de fg|gf ge fd cA|((3Bcd) AF FE E2|
dc dB AD FB|AD FB AD FA|cd cB AD FA|((3Bcd) AF FE Ec|
dD cD BD AD|BA FA Bc de|((3fgf) ((3efe) dc BA|GF EF D2:|
